X: 41082
T: Trip To Pakistan, The
R: reel
M: 4/4
K: Bminor
|:BdfB d2df|e2ef edcd|BdfB d2df|edcd B4:|
|:BdfB g2ge|f2fa fedc|BdfB g2ge|fedf e2dc:|
|:cdfc dfcd|BcdB cdBc|AceA ceAc|edcd B4:|

